!!!!SEGMENT: pl-kk--kk-i-513--006_haser-august-ferdinand--miserere-ecce-enim-iniquitatibus.krn
!!!cenid: 17xx:1846
!!!COM: Häser, August Ferdinand
!!!COM-rismid: pe37240
!!!CDT: 1779/10/15-1844/11/01
!!!CNT: German
!!!OPR: Miserere
!!!OTL: Ecce enim iniquitatibus
!!!OMV: 006
!!!PDT:
!!!AGN: Sacred
!!!SMS-siglum: PL-Kk
!!!SMS-shelfmark: Kk.I.513
!!!SMS-shelfwork: 001-006 M
!!!SMS-variant:
!!!SMS-altvar:
!!!NIFC-rismid: 1001138492
!!!system-decoration: [(s1,s2,s3,s4)]{(s5,s6)}
!!!key:
**kern	**kern	**kern	**text	**dynam	**kern	**text	**dynam	**kern	**text	**dynam	**kern	**text	**dynam
*part5	*part5	*part4	*part4	*part4	*part3	*part3	*part3	*part2	*part2	*part2	*part1	*part1	*part1
*staff6	*staff5	*staff4	*staff4	*	*staff3	*staff3	*	*staff2	*staff2	*	*staff1	*staff1	*
*Iorgan	*Iempty	*Ibass	*	*	*Itenor	*	*	*Ialto	*	*	*Isoprn	*	*
*I"[Organo]	*	*I"Basso.	*	*	*I"Tenore.	*	*	*I"Alto	*	*	*I"Soprano.	*	*
*I'[org]	*	*I'B	*	*	*I'T	*	*	*I'A	*	*	*I'S	*	*
*clefF4	*clefG2	*clefF4	*	*	*clefC4	*	*	*clefG2	*	*	*clefG2	*	*
*k[b-]	*k[b-]	*k[b-]	*	*	*k[b-]	*	*	*k[b-]	*	*	*k[b-]	*	*
*g:	*g:	*g:	*	*	*g:	*	*	*g:	*	*	*g:	*	*
*M3/4	*M3/4	*M3/4	*	*	*M3/4	*	*	*M3/4	*	*	*M3/4	*	*
=1	=1	=1	=1	=1	=1	=1	=1	=1	=1	=1	=1	=1	=1
*^	*^	*	*	*	*	*	*	*	*	*	*	*	*
*2\right	*2\right	*2\right	*2\right	*2\right	*	*	*2\right	*	*	*	*	*	*2\right	*	*
!LO:TX:t=P:problem=all\right&colon; global	!	!LO:TX:t=P:problem=all\right&colon; global	!	!LO:TX:t=P:problem=all\right&colon; global	!	!	!LO:TX:t=P:problem=all\right&colon; global	!	!	!	!	!	!LO:TX:t=P:problem=all\right&colon; global	!	!
!	!	!LO:TX:t=P:problem=w źródle brak oznaczenia tempa	!	!	!	!	!	!	!	!LO:TX:t=P:problem=w źródle brak oznaczenia tempa	!	!	!LO:TX:t=P:problem=w źródle brak oznaczenia tempa	!	!
!	!	!	!	!	!	!	!	!	!	!LO:TX:a:Bi:t=No 6.:problem='No 6.' znajduje się przed kluczem i oznaczeniem metrum na pięciolinii	!	!	!LO:TX:a:Bi:t=No 6.:problem='No 6.' znajduje się przed kluczem i oznaczeniem metrum na pięciolinii	!	!
!	!	!LO:TX:a:Bi:t=N 6.:problem='N 6.' znajduje się przed kluczem i oznaczeniem metrum	!	!LO:TX:a:Bi:t=No 6.:problem='No 6.' znajduje się przed kluczem i oznaczeniem metrum na pięciolinii	!	!	!LO:TX:a:Bi:t=N 6.:problem='N 6.' znajduje się przed kluczem i oznaczeniem metrum na pięciolinii	!	!	!	!	!	!	!	!
!	!	!	!	!LO:TX:b:Bi:t=Largo.:rj	!	!	!LO:TX:a:Bi:t=Largo:rj	!	!	!	!	!	!	!	!
!	!	!	!	!LO:TX:a:Bi:t=Soli	!	!	!LO:TX:a:Bi:t=Soli	!	!	!LO:TX:a:Bi:t=Soli	!	!	!LO:TX:a:Bi:t=Soli	!	!
!	!	!	!	!	!	!LO:DY:b:rj	!	!	!	!	!	!	!	!	!
2F\	2ryy	2a/	4.c\	2F\	Ec-	p	2F/	Ec-	.	4.c/	Ec-	.	2a/	Ec-	.
.	.	.	8e-X\	.	.	.	.	.	.	8e-X/	.	.	.	.	.
4BB-\	8F#X/L	4dd/	4d\	4BB-/	-ce	.	8F#X/L	-ce	.	4dd\	-ce	.	4dd\	-ce	.
.	8G/J	.	.	.	.	.	8G/J	.	.	.	.	.	.	.	.
=2	=2	=2	=2	=2	=2	=2	=2	=2	=2	=2	=2	=2	=2	=2	=2
4A/	2C\	4f/	2c\	4C/	e-	.	4A/	e-	.	4c/	e-	.	4f/	e-	.
4G/	.	4e/	.	4C/	-nim	.	4G/	-nim	.	4c/	-nim	.	4e/	-nim	.
4r	4ryy	4re	4ryy	4r	.	.	4r	.	.	4r	.	.	4r	.	.
*v	*v	*	*	*	*	*	*	*	*	*	*	*	*	*	*
=3	=3	=3	=3	=3	=3	=3	=3	=3	=3	=3	=3	=3	=3	=3
!	!	!	!	!	!	!	!	!	!LO:TX:a:t=P:problem=w źródle crescendo przekreślone przez skryptora	!	!	!	!	!
!	!	!	!	!	!	!	!	!LO:HP:a	!	!	!	!	!	!LO:HP:a
2.c 2.C\	2.g/	2e\	4.C/	in	.	4.c\	in	<	4.e/	in	.	4.g/	in	<
.	.	.	8C/	i-	.	8c\	i-	.	8e/	i-	.	8g/	i-	.
.	.	4e-X\	8C/	-ni-	.	8c\	-ni-	.	8e-X/	-ni-	.	8g/	-ni-	.
.	.	.	8C/	-qui-	.	8c\	-qui-	.	8e-/	-qui-	.	8g/	-qui-	.
=4	=4	=4	=4	=4	=4	=4	=4	=4	=4	=4	=4	=4	=4	=4
*^	*	*	*	*	*	*	*	*	*	*	*	*	*	*
!	!	!	!	!	!	!LO:DY:a:rj	!	!	!	!	!	!LO:DY:a:rj	!	!	!LO:DY:a:rj
8.c/L	8.c\L	8.f#X/L	2d#X\	8.c\	-ta-	f	8.c\	-ta-	.	8.e-X/	-ta-	f	8.f#X/	-ta-	f
16c/Jk	16A\Jk	16a/Jk	.	16A\	-ti-	.	16c\	-ti-	.	16e-/	-ti-	.	16a/	-ti-	.
4A/	4F#X\	4cc/	.	4F#X\	-bus	.	4A\	-bus	.	4e-/	-bus	.	4cc\	-bus	.
4r	4ryy	4r	4ryy	4r	.	.	4r	.	.	4r	.	.	4r	.	.
!LO:LB:g=original	!	!LO:LB:g=original	!	!	!	!	!	!	!	!	!	!	!	!	!
=5	=5	=5	=5	=5	=5	=5	=5	=5	=5	=5	=5	=5	=5	=5	=5
!	!	!	!	!	!	!	!	!	!	!	!	!	!	!	!LO:DY:a:rj
4c\	4ryy	4ee-X/	4f#X\	4c\	con-	.	4c\	con-	.	4f#X/	con-	.	4ee-X/	con-	pp
2d/	4B-\	2dd/	4.g\	4B-\	-ce-	.	4d\	-ce-	.	4g/	-ce-	.	4dd/	-ce-	.
!	!	!	!	!	!	!	!	!	!	!LO:LB:g=original	!	!	!	!	!
.	4A\	.	.	4A\	-ptus	.	4d\	-ptus	.	8g/L	-ptus	.	4cc/	-ptus	.
.	.	.	8f#X\	.	.	.	.	.	.	8f#X/J	.	.	.	.	.
!	!	!	!	!LO:LB:g=original	!	!	!	!	!	!	!	!	!LO:LB:g=original	!	!
*v	*v	*	*	*	*	*	*	*	*	*	*	*	*	*	*
*	*v	*v	*	*	*	*	*	*	*	*	*	*	*	*
=6	=6	=6	=6	=6	=6	=6	=6	=6	=6	=6	=6	=6	=6
4d 4G\	4b-X 4g/	4G\	sum	.	4d\	sum	.	4g/	sum,	.	4b-/	sum,	.
4r	4r	4r	.	.	4r	.	.	4r	.	.	4r	.	.
4r	4r	4r	.	.	4r	.	.	4r	.	.	4r	.	.
!	!	!	!	!	!LO:LB:g=original	!	!	!	!	!	!	!	!
=7	=7	=7	=7	=7	=7	=7	=7	=7	=7	=7	=7	=7	=7
*^	*	*	*	*	*	*	*	*	*	*	*	*	*
!	!	!	!	!	!LO:HP:a	!	!	!	!	!	!LO:DY:b:rj	!	!	!
4e/	2.G\	2.b-X 2.g\	4G\	et	<	4d\	et	.	4g/	et	p	4b-/	et	.
8e-X/L	.	.	4G\	in	.	8e-X\L	in	.	4g/	in	.	4b-/	in	.
8d/	.	.	.	.	.	8d\J	.	.	.	.	.	.	.	.
8c#X/	.	.	4G\	pec-	[	8c#X\L	pec-	.	4g/	pec-	.	4b-/	pec-	.
8d/J	.	.	.	.	.	8d\J	.	.	.	.	.	.	.	.
*v	*v	*	*	*	*	*	*	*	*	*	*	*	*	*
=8	=8	=8	=8	=8	=8	=8	=8	=8	=8	=8	=8	=8	=8
*	*^	*	*	*	*	*	*	*	*	*	*	*	*
!	!	!	!	!	!LO:DY:b:rj	!	!	!LO:DY:b:rj	!	!	!	!	!	!LO:DY:a:rj
2A-X 2C\	8.a-X/L	2e-X\	4C/	-ca-	ff	4e-X\	-ca-	ff	4a-X/	-ca-	.	(>8.a-X\L	-ca-	f
.	16cc/Jk	.	.	.	.	.	.	.	.	.	.	16cc\Jk)	.	.
.	4ee-X/	.	4C/	-tis	.	4e-\	-tis	.	4a-/	-tis	.	4ee-X\	-tis	.
4r	4r	4ryy	4r	.	.	4r	.	.	4r	.	.	4r	.	.
=9	=9	=9	=9	=9	=9	=9	=9	=9	=9	=9	=9	=9	=9	=9
!	!	!	!	!	!	!	!	!LO:DY:b:rj	!	!	!	!	!	!LO:DY:a:rj
2.B- 2.C#X\	2.g/	4r	4C#X/	con-	.	4B-\	con-	pp	4g/	con-	.	4g/	con-	pp
.	.	2en\	4C#/	-ce-	.	4B-\	-ce-	.	4en/	-ce-	.	4g/	-ce-	.
.	.	.	4C#/	-pit	.	4B-\	-pit	.	4e/	-pit	.	4g/	-pit	.
=10	=10	=10	=10	=10	=10	=10	=10	=10	=10	=10	=10	=10	=10	=10
*^	*	*	*	*	*	*	*	*	*	*	*	*	*	*
4B-/	2.D\	4dd/	2.d\	4D/	me	.	4B-\	me	.	4d/	me	.	4dd\	me	.
4G/	.	8cc/L	.	4D/	ma-	.	4G\	ma-	.	4d/	ma-	.	(>8cc\L	ma-	.
.	.	8b-/	.	.	.	.	.	.	.	.	.	.	8b-\J)	.	.
4B-/	.	8a/	.	4D/	-ter	.	4B-\	-ter	.	4d/	-ter	.	(<8a/L	-ter	.
.	.	8g/J	.	.	.	.	.	.	.	.	.	.	8g/J)	.	.
=11	=11	=11	=11	=11	=11	=11	=11	=11	=11	=11	=11	=11	=11	=11	=11
2.A\	2.D\	4g/	4e-X\	2.D/	me-	.	2.A/	me-	.	(4e-X/	me-	.	(>&(<4g/	me-	.
.	.	2f#X/	8d\L	.	.	.	.	.	.	8d/L	.	.	2f#X/&))	.	.
.	.	.	8e-X\	.	.	.	.	.	.	8e-/	.	.	.	.	.
.	.	.	8d\	.	.	.	.	.	.	8d/	.	.	.	.	.
.	.	.	8c\J	.	.	.	.	.	.	8c/J)	.	.	.	.	.
!LO:LB:g=original	!	!LO:LB:g=original	!	!LO:LB:g=original	!	!	!	!	!	!LO:LB:g=original	!	!	!LO:LB:g=original	!	!
*v	*v	*	*	*	*	*	*	*	*	*	*	*	*	*	*
*	*v	*v	*	*	*	*	*	*	*	*	*	*	*	*
=12	=12	=12	=12	=12	=12	=12	=12	=12	=12	=12	=12	=12	=12
2G 2E-X\	2g 2B-X/	2E-X\	-a	.	2G/	-a	.	2B-/	-a	.	2g/	-a,	.
4r	4r	4r	.	.	4r	.	.	4r	.	.	4r	.	.
=13	=13	=13	=13	=13	=13	=13	=13	=13	=13	=13	=13	=13	=13
*	*^	*	*	*	*	*	*	*	*	*	*	*	*
!	!	!	!	!	!LO:DY:a:rj	!	!	!LO:DY:b:rj	!	!	!LO:DY:a:rj	!	!	!LO:DY:a:rj
!	!	!	!	!	!	!	!	!LO:HP:a	!	!	!LO:HP:a	!	!	!
2.C\	2.a 2.g/	2.e-X\	4.C/	in	p	4.e-X\	in	p <	4.g/	in	p <[	4.a/	in	p
.	.	.	8C/	i-	.	8e-\	i-	.	8g/	i-	.	8a/	i-	.
.	.	.	8C/	-ni-	.	8e-\	-ni-	.	8g/	-ni-	.	8a/	-ni-	.
.	.	.	8C/	-qui-	.	8e-\	-qui-	.	8g/	-qui-	.	8a/	-qui-	.
!	!	!	!	!	!	!LO:LB:g=original	!	!	!	!	!	!	!	!
=14	=14	=14	=14	=14	=14	=14	=14	=14	=14	=14	=14	=14	=14	=14
*^	*	*	*	*	*	*	*	*	*	*	*	*	*	*
2.G/	[<4D\	8.cc/L	4f\	8.D\	-ta-	.	8.f\	-ta-	.	8.g/	-ta-	.	8.cc\	-ta-	.
.	.	16bn/Jk	.	16D\	-ti-	.	16f\	-ti-	.	16g/	-ti-	.	16bn\	-ti-	.
.	4.D\]	2b/	4.f\	4.D\	-bus	.	4.f\	-bus	.	4.g/	-bus	.	4.b/	-bus	.
.	8F\	.	8d\	8F\	con-	.	8d\	con-	.	8g/	con-	.	8b/	con-	.
*v	*v	*	*	*	*	*	*	*	*	*	*	*	*	*	*
=15	=15	=15	=15	=15	=15	=15	=15	=15	=15	=15	=15	=15	=15	=15
8.BnL 8.F\	8.dd/L	[<4g\	8.F\	-ce-	.	8.Bn\	-ce-	.	8.g/	-ce-	.	8.dd\	-ce-	.
16cJk 16E-X\	16bn/Jk	.	16E-X\	-ptus	.	16c\	-ptus	.	16g/	-ptus	.	16cc\	-ptus	.
4c 4E-\	2b/	4g\]	4E-\	sum	.	4c\	sum	.	4g/	sum	.	4cc\	sum	.
4r	.	4r	4r	.	.	4r	.	.	4r	.	.	4r	.	.
!	!	!	!LO:LB:g=original	!	!	!	!	!	!	!	!	!	!	!
=16	=16	=16	=16	=16	=16	=16	=16	=16	=16	=16	=16	=16	=16	=16
*^	*	*	*	*	*	*	*	*	*	*	*	*	*	*
!	!	!	!	!	!	!	!	!	!LO:DY:b:rj	!	!	!LO:DY:a:rj	!	!	!
!	!	!	!	!	!	!	!	!	!	!	!	!LO:HP:a	!	!	!
4c/	4c\	2.ee-X/	4g\	4c\	et	.	4c\	et	p	4g/	et	p <	4ee-X\	et	.
4A\	2c/	.	2a\	4A\	in	.	4c\	in	.	4a/	in	.	4ee-\	in	.
!	!	!	!	!	!	!	!	!	!LO:HP:a	!	!	!	!	!	!
4G\	.	.	.	4G\	pec-	.	4c\	pec-	<	4a/	pec-	.	4ee-\	pec-	.
=17	=17	=17	=17	=17	=17	=17	=17	=17	=17	=17	=17	=17	=17	=17	=17
[>4c/	4F#X\	8.ee-X/L	4a\	4F#X\	-ca-	.	4c\	-ca-	.	4a/	-ca-	.	(>8.ee-X\L	-ca-	.
.	.	16dd/Jk	.	.	.	.	.	.	.	.	.	.	16dd\Jk)	.	.
2c/]	2A\	2dd/	2f#X\	2A\	-tis	.	2c\	-tis	.	2f#X/	-tis	.	2dd\	-tis	.
!	!	!	!	!	!	!	!	!	!	!LO:LB:g=original	!	!	!LO:LB:g=original	!	!
*v	*v	*	*	*	*	*	*	*	*	*	*	*	*	*	*
=18	=18	=18	=18	=18	=18	=18	=18	=18	=18	=18	=18	=18	=18	=18
4d 4B-\	2.dd/	4g\	4B-\	con-	.	4d\	con-	.	4g/	con-	.	4dd\	con-	.
4c 4A\	.	4f#X\	4A\	-ce-	.	4c\	-ce-	.	4f#X/	-ce-	.	4dd\	-ce-	.
4e 4c\	.	8a\L	4c\	-pit	.	4d\	-pit	.	8a/L	-pit	.	4dd\	-pit	.
.	.	8f#\J	.	.	.	.	.	.	8f#/J	.	.	.	.	.
!LO:LB:g=original	!LO:LB:g=original	!	!	!	!	!	!	!	!	!	!	!	!	!
=19	=19	=19	=19	=19	=19	=19	=19	=19	=19	=19	=19	=19	=19	=19
!	!	!	!	!	!	!	!	!LO:DY:b:rj	!	!	!	!	!	!
4d 4B-\	2.gg/	4g\	(<4B-\	me	.	(>4d\	me-	f	(<4g/	me-	.	[>2.gg\	me-	.
4e-X 4c\	.	4a\	4c\	.	.	4e-X\	.	.	&(<4a/	.	.	.	.	.
4en 4c#X\	.	4b-\	4c#X\)	.	.	4en\	.	.	[<4b-/)	.	.	.	.	.
!	!	!	!	!	!	!LO:LB:g=original	!	!	!	!	!	!	!	!
*	*v	*v	*	*	*	*	*	*	*	*	*	*	*	*
=20	=20	=20	=20	=20	=20	=20	=20	=20	=20	=20	=20	=20	=20
!	!	!	!	!LO:DY:a:rj	!	!	!LO:DY:b:rj	!	!	!	!LO:TX:b:i:t=g	!	!
4d\	4gg 4b-/	4d\	-ma-	ff	4d\)	-a	f	4b-/]	-a	.	4gg\]	-a	.
!	!	!	!	!LO:DY:a:rj	!	!	!	!	!	!	!	!	!LO:DY:b:rj
2B- 2D\	2dd 2g/	2D/	-ter	pp	4B-\	Ma-	.	4g/&)	Ma-	.	4dd\	Ma-	f
.	.	.	.	.	4B-\	-ter	.	4g/	-ter	.	4dd\	-ter	.
=21	=21	=21	=21	=21	=21	=21	=21	=21	=21	=21	=21	=21	=21
*^	*^	*	*	*	*	*	*	*	*	*	*	*	*
2A/	2.D\	2.dd/	4g\	2.D/	me-	.	(>2A\	me-	.	4g/	me-	.	2.dd\	me-	.
.	.	.	2f#X\	.	.	.	.	.	.	2f#X/	.	.	.	.	.
4c/	.	.	.	.	.	.	4c\)	.	.	.	.	.	.	.	.
=22	=22	=22	=22	=22	=22	=22	=22	=22	=22	=22	=22	=22	=22	=22	=22
*	*	*	*	*^	*	*	*	*	*	*	*	*	*	*	*
2B-/	2G\	2dd/	2g\	2G/	2GG\	-a	.	2B-\	-a.	.	2g/	-a.	.	2dd\	-a.	.
4r	4ryy	4r	4ryy	4r	4ryy	.	.	4r	.	.	4r	.	.	4r	.	.
*v	*v	*	*	*v	*v	*	*	*	*	*	*	*	*	*	*	*
*	*v	*v	*	*	*	*	*	*	*	*	*	*	*	*
==	==	==	==	==	==	==	==	==	==	==	==	==	==
*-	*-	*-	*-	*-	*-	*-	*-	*-	*-	*-	*-	*-	*-
!!title: @{OTL};
!!!RDF**kern: > = above
!!!RDF**kern: < = below
!!!RDF**dynam: < = "cres.", fontstyle= "bold-italic"
!!!EED: Wojciech Jakubiak-Danek
!!!EST: 2021-01-03
!!!URL-scan: http://repozytorium.nifc.pl/skany/pl-kk-nut--i-513
!!!ONB-nifc:
!!!AIN: 1 alto 1 bass 1 organ 1 soprn 1 tenor
!!!ENC: Tomasz Grochalski
!!!END: 2020-12-31
